public/drop-up.svg

<svg xmlns="http://www.w3.org/2000/svg" xmlns:xlink="http://www.w3.org/1999/xlink" width="32" height="32"><defs><path id="a" d="M18.4497475 15.4497475c0-.5522848.4477152-1 1-1 .5522847 0 1 .4477152 1 1v7c0 .5522847-.4477153 1-1 1h-7c-.5522848 0-1-.4477153-1-1 0-.5522848.4477152-1 1-1h6v-6z"/></defs><use fill="#C5C5C5" fill-rule="nonzero" transform="scale(1 -1) rotate(45 61.69848321 0)" xlink:href="#a"/></svg>

<?xml version="1.0" encoding="UTF-8"?>
<svg width="32px" height="32px" viewBox="0 0 32 32" version="1.1" 
    xmlns="http://www.w3.org/2000/svg" 
    xmlns:xlink="http://www.w3.org/1999/xlink">
    <!-- Generator: Sketch 53.2 (72643) - https://sketchapp.com -->
    <title>icon/secondary/drop-up</title>
    <desc>Created with Sketch.</desc>
    <defs>
        <path d="M18.4497475,15.4497475 C18.4497475,14.8974627 18.8974627,14.4497475 19.4497475,14.4497475 C20.0020322,14.4497475 20.4497475,14.8974627 20.4497475,15.4497475 L20.4497475,22.4497475 C20.4497475,23.0020322 20.0020322,23.4497475 19.4497475,23.4497475 L12.4497475,23.4497475 C11.8974627,23.4497475 11.4497475,23.0020322 11.4497475,22.4497475 C11.4497475,21.8974627 11.8974627,21.4497475 12.4497475,21.4497475 L18.4497475,21.4497475 L18.4497475,15.4497475 Z" id="path-1"></path>
    </defs>
    <g id="icon/secondary/drop-up" stroke="none" stroke-width="1" fill="none" fill-rule="evenodd">
        <rect fill="#FF0000" opacity="0" x="0" y="0" width="32" height="32"></rect>
        <mask id="mask-2" fill="white">
            <use xlink:href="#path-1"></use>
        </mask>
        <use id="Mask" fill="#C5C5C5" fill-rule="nonzero" transform="translate(15.949747, 18.949747) scale(1, -1) rotate(-315.000000) translate(-15.949747, -18.949747) " xlink:href="#path-1"></use>
    </g>
</svg>
